svg/u1f62c.svg

<svg viewBox="0 0 128 128" xmlns="http://www.w3.org/2000/svg">
  <radialGradient id="face_1_" cx="63.6" cy="-2088.8999" gradientTransform="matrix(1 0 0 -1 0 -2026)" gradientUnits="userSpaceOnUse" r="56.9597">
    <stop offset="0.5" stop-color="#FDE030"/>
    <stop offset="0.9188" stop-color="#F7C02B"/>
    <stop offset="1" stop-color="#F4A223"/>
  </radialGradient>
  <path id="face_41_" d="M63.6,118.8c-27.9,0-58-17.5-58-55.9S35.7,7,63.6,7c15.5,0,29.8,5.1,40.4,14.4 c11.5,10.2,17.6,24.6,17.6,41.5s-6.1,31.2-17.6,41.4C93.4,113.6,79,118.8,63.6,118.8z" fill="url(#face_1_)"/>
  <path d="M111.49,29.67c5.33,8.6,8.11,18.84,8.11,30.23c0,16.9-6.1,31.2-17.6,41.4 c-10.6,9.3-25,14.5-40.4,14.5c-18.06,0-37.04-7.35-48.18-22.94c10.76,17.66,30.99,25.94,50.18,25.94c15.4,0,29.8-5.2,40.4-14.5 c11.5-10.2,17.6-24.5,17.6-41.4C121.6,50.16,118.13,38.84,111.49,29.67z" fill="#EB8F00"/>
  <g>
    <path d="M44.04,40.94L44.04,40.94c-4.19,0-8,3.54-8,9.42s3.81,9.42,8,9.42l0,0c4.19,0,8-3.54,8-9.42 S48.24,40.94,44.04,40.94z" fill="#422B0D"/>
    <g id="peepers_146_">
      <path d="M43.65,44.87L43.65,44.87c-1.03-0.72-2.58-0.49-3.58,0.95c-1,1.45-0.67,2.97,0.36,3.69l0,0 c1.03,0.72,2.58,0.49,3.58-0.95S44.69,45.59,43.65,44.87z" fill="#896024"/>
    </g>
    <path d="M82.4,40.94L82.4,40.94c-4.19,0-8,3.54-8,9.42s3.81,9.42,8,9.42l0,0c4.19,0,8-3.54,8-9.42 S86.59,40.94,82.4,40.94z" fill="#422B0D"/>
    <g id="peepers_145_">
      <path d="M82.01,44.87L82.01,44.87c-1.03-0.72-2.58-0.49-3.58,0.95c-1,1.45-0.67,2.97,0.36,3.69l0,0 c1.03,0.72,2.58,0.49,3.58-0.95C83.38,47.11,83.04,45.59,82.01,44.87z" fill="#896024"/>
    </g>
  </g>
  <g>
    <path d="M39.38,93.99h50.09c6.32,0,11.44-5.12,11.44-11.44v0c0-6.32-5.12-11.44-11.44-11.44H39.38 c-6.32,0-11.44,5.12-11.44,11.44v0C27.93,88.87,33.06,93.99,39.38,93.99z" fill="#FFFFFF"/>
    <path d="M100.74,80.67H28.1c-0.1,0.61-0.17,1.24-0.17,1.88c0,0.73,0.07,1.43,0.2,2.12h72.57 c0.13-0.69,0.2-1.39,0.2-2.12C100.91,81.9,100.84,81.28,100.74,80.67z" fill="#B3B3B3"/>
    <g>
      <path d="M89.46,71.1h-0.55v22.89h0.55c0.91,0,1.8-0.12,2.65-0.32V71.42C91.26,71.22,90.38,71.1,89.46,71.1z " fill="#B3B3B3"/>
      <rect height="22.89" fill="#B3B3B3" width="3.2" x="62.58" y="71.1"/>
      <path d="M39.38,71.1c-1.09,0-2.14,0.16-3.14,0.45v21.99c1,0.29,2.05,0.45,3.14,0.45h0.06V71.1H39.38z" fill="#B3B3B3"/>
      <rect height="22.89" fill="#B3B3B3" width="3.2" x="49.41" y="71.1"/>
      <rect height="22.89" fill="#B3B3B3" width="3.2" x="75.74" y="71.1"/>
    </g>
    <path d="M100.91,82.55c-0.34-3.59-2.27-6.84-5.13-8.64c-1.4-0.93-3-1.51-4.63-1.68 c-1.56-0.16-3.43,0.01-5.21,0.04c-3.58,0.14-7.17,0.17-10.75,0.25L64.42,72.6l-10.75-0.08c-3.58-0.08-7.17-0.11-10.75-0.25 c-1.78-0.03-3.65-0.2-5.21-0.04c-1.63,0.17-3.24,0.74-4.63,1.68c-2.86,1.8-4.8,5.05-5.14,8.64c-0.34-3.59,1.27-7.44,4.27-9.83 c1.48-1.21,3.28-2.05,5.19-2.43l0.72-0.14l0.73-0.06c0.5-0.05,0.94-0.05,1.39-0.07l2.69-0.09c3.58-0.14,7.17-0.17,10.75-0.25 l10.75-0.08l10.75,0.08c3.58,0.08,7.17,0.11,10.75,0.25l2.69,0.09c0.45,0.02,0.88,0.02,1.39,0.07l0.73,0.06l0.72,0.14 c1.91,0.38,3.71,1.22,5.19,2.43C99.64,75.11,101.25,78.95,100.91,82.55z" fill="#DE7321"/>
  </g>
</svg>

<svg viewBox="0 0 128 128" xmlns="http://www.w3.org/2000/svg">
  <defs>
    <radialGradient id="face_1_" cx="63.6" cy="-62.8999" gradientTransform="matrix(1 0 0 -1 0 0)" gradientUnits="userSpaceOnUse" r="56.9597">
      <stop offset="0.5" stop-color="#FDE030"/>
      <stop offset="0.9188" stop-color="#F7C02B"/>
      <stop offset="1" stop-color="#F4A223"/>
    </radialGradient>
  </defs>
  <path id="face_41_" d="M63.6,118.8 C35.7,118.8 5.6,101.3 5.6,62.9 C5.6,24.5 35.7,7 63.6,7 C79.1,7 93.4,12.1 104,21.4 C115.5,31.6 121.6,46 121.6,62.9 C121.6,79.8 115.5,94.1 104,104.3 C93.4,113.6 79,118.8 63.6,118.8 Z" fill="url(#face_1_)"/>
  <path d="M111.49,29.67 C116.82,38.27 119.6,48.51 119.6,59.9 C119.6,76.8 113.5,91.1 102,101.3 C91.4,110.6 77,115.8 61.6,115.8 C43.54,115.8 24.56,108.45 13.42,92.86 C24.18,110.52 44.41,118.8 63.6,118.8 C79,118.8 93.4,113.6 104,104.3 C115.5,94.1 121.6,79.8 121.6,62.9 C121.6,50.16 118.13,38.84 111.49,29.67 Z" fill="#EB8F00"/>
  <path d="M44.04,40.94 L44.04,40.94 C39.85,40.94 36.04,44.48 36.04,50.36 C36.04,56.24 39.85,59.78 44.04,59.78 L44.04,59.78 C48.23,59.78 52.04,56.24 52.04,50.36 C52.04,44.48 48.24,40.94 44.04,40.94 Z" fill="#422B0D"/>
  <path d="M43.65,44.87 L43.65,44.87 C42.62,44.15 41.07,44.38 40.07,45.82 C39.07,47.27 39.4,48.79 40.43,49.51 L40.43,49.51 C41.46,50.23 43.01,50 44.01,48.56 C45.01,47.12 44.69,45.59 43.65,44.87 Z" fill="#896024"/>
  <path d="M82.4,40.94 L82.4,40.94 C78.21,40.94 74.4,44.48 74.4,50.36 C74.4,56.24 78.21,59.78 82.4,59.78 L82.4,59.78 C86.59,59.78 90.4,56.24 90.4,50.36 C90.4,44.48 86.59,40.94 82.4,40.94 Z" fill="#422B0D"/>
  <path d="M82.01,44.87 L82.01,44.87 C80.98,44.15 79.43,44.38 78.43,45.82 C77.43,47.27 77.76,48.79 78.79,49.51 L78.79,49.51 C79.82,50.23 81.37,50 82.37,48.56 C83.38,47.11 83.04,45.59 82.01,44.87 Z" fill="#896024"/>
  <path d="M39.38,93.99 L89.47,93.99 C95.79,93.99 100.91,88.87 100.91,82.55 L100.91,82.55 C100.91,76.23 95.79,71.11 89.47,71.11 L39.38,71.11 C33.06,71.11 27.94,76.23 27.94,82.55 L27.94,82.55 C27.93,88.87 33.06,93.99 39.38,93.99 Z" fill="#FFFFFF"/>
  <path d="M100.74,80.67 L28.1,80.67 C28,81.28 27.93,81.91 27.93,82.55 C27.93,83.28 28,83.98 28.13,84.67 L100.7,84.67 C100.83,83.98 100.9,83.28 100.9,82.55 C100.91,81.9 100.84,81.28 100.74,80.67 Z" fill="#B3B3B3"/>
  <path d="M89.46,71.1 L88.91,71.1 L88.91,93.99 L89.46,93.99 C90.37,93.99 91.26,93.87 92.11,93.67 L92.11,71.42 C91.26,71.22 90.38,71.1 89.46,71.1 Z" fill="#B3B3B3"/>
  <path d="M62.58,71.1 L65.78,71.1 L65.78,93.99 L62.58,93.99 L62.58,71.1 Z" fill="#B3B3B3"/>
  <path d="M39.38,71.1 C38.29,71.1 37.24,71.26 36.24,71.55 L36.24,93.54 C37.24,93.83 38.29,93.99 39.38,93.99 L39.44,93.99 L39.44,71.1 L39.38,71.1 Z" fill="#B3B3B3"/>
  <path d="M49.41,71.1 L52.61,71.1 L52.61,93.99 L49.41,93.99 L49.41,71.1 Z" fill="#B3B3B3"/>
  <path d="M75.74,71.1 L78.94,71.1 L78.94,93.99 L75.74,93.99 L75.74,71.1 Z" fill="#B3B3B3"/>
  <path d="M100.91,82.55 C100.57,78.96 98.64,75.71 95.78,73.91 C94.38,72.98 92.78,72.4 91.15,72.23 C89.59,72.07 87.72,72.24 85.94,72.27 C82.36,72.41 78.77,72.44 75.19,72.52 L64.42,72.6 L53.67,72.52 C50.09,72.44 46.5,72.41 42.92,72.27 C41.14,72.24 39.27,72.07 37.71,72.23 C36.08,72.4 34.47,72.97 33.08,73.91 C30.22,75.71 28.28,78.96 27.94,82.55 C27.6,78.96 29.21,75.11 32.21,72.72 C33.69,71.51 35.49,70.67 37.4,70.29 L38.12,70.15 L38.85,70.09 C39.35,70.04 39.79,70.04 40.24,70.02 L42.93,69.93 C46.51,69.79 50.1,69.76 53.68,69.68 L64.43,69.6 L75.18,69.68 C78.76,69.76 82.35,69.79 85.93,69.93 L88.62,70.02 C89.07,70.04 89.5,70.04 90.01,70.09 L90.74,70.15 L91.46,70.29 C93.37,70.67 95.17,71.51 96.65,72.72 C99.64,75.11 101.25,78.95 100.91,82.55 Z" fill="#DE7321"/>
</svg>
